X: 32781
T: Pony Trot Polka, The
R: barndance
M: 4/4
K: Cmajor
|:g3/2[e/g/]|a2 g2 a2 g2|a2 g2- g2 e>e-|e2 c2 d2 c2|A4- A2 d>d|
f2- f>d f>df>d|(3BcB B2- B2 G>G|A2 G2 (3ABA G2|e4- e2 g>g|
a2 g2 a>eg>e|a2 g2- g2 e>e|e2 c>c B2 ^A2|A4- A2 d>d|
f>dA>d f2- f>c|B4- B2 A>A|G2 (3Gcf e2 d2|c4- c2:|
|:G2|E4 G2- G>c|e>^de>d e2 G2|A2- A>F A>c e2|f2- f>e f2- f>c|
B<G-G>G B>GB>d|(3fed B>d A2- AG/G/|(3GAG G2 (3GAG G2|e6- e>F|
G4 G>EG>^d|e2 ^d2 e2 G2|A4 A>d e^d/e/|f2 d2 f2- f>c|
(3BcB B>B- B>G (3GBd|f2 d2 (3BdB A>B|G2 f2 e2 d2|c2 G2 c2:|

